X: 13426
T: Floating Monty
R: reel
M: 4/4
K: Dmixolydian
|:A3B cABG|AGED CDEG|Adde f2fg|aged cAGc|
AGED C2CD|EGGA cdeg|afge dcAB|1 cAGE D4:|2 cAGE D2Ac||
|:d2Ad FdAd|cAGE CDEG|AGED C2CD|EGGA cdec|
d2Ad FdAd|c2Gc EcGc|dcAG EDCE|1 AGEC D2Ac:|2 AGEC D4||

